Obsidian-SemiLight/actions/22s/insert-button.svg

<svg viewBox="0 0 22 22" xmlns="http://www.w3.org/2000/svg"><g fill="#4d4d4d"><path d="m17.96875 6.53125c.0128.0721.03125.14284.03125.21875v7.5c0 .69252-.55748 1.25-1.25 1.25h-12.5c-.0759 0-.14664-.01845-.21875-.03125.10431.58574.60214 1.03125 1.21875 1.03125h12.5c.69252 0 1.25-.55748 1.25-1.25v-7.5c0-.61661-.44551-1.11444-1.03125-1.21875z" fill-opacity=".5"/><path d="m4.25 5.5c-.69252 0-1.25.55748-1.25 1.25v7.5c0 .69252.55748 1.25 1.25 1.25h12.5c.69252 0 1.25-.55748 1.25-1.25v-7.5c0-.69252-.55748-1.25-1.25-1.25zm9.75 2h1v4h-1-5v2l-3-2.5 3-2.5v2h3 1 1z"/></g></svg>

<svg xmlns="http://www.w3.org/2000/svg" viewBox="0 0 22 22">
  <defs id="defs3051">
    <style type="text/css" id="current-color-scheme">
      .ColorScheme-Text {
        color:#4d4d4d;
      }
      </style>
  </defs>
 <path 
     style="fill:currentColor;fill-opacity:0.5;stroke:none" 
     d="M 17.96875 6.53125 C 17.98155 6.60335 18 6.67409 18 6.75 L 18 14.25 C 18 14.94252 17.44252 15.5 16.75 15.5 L 4.25 15.5 C 4.1741 15.5 4.10336 15.48155 4.03125 15.46875 C 4.13556 16.05449 4.63339 16.5 5.25 16.5 L 17.75 16.5 C 18.44252 16.5 19 15.94252 19 15.25 L 19 7.75 C 19 7.13339 18.55449 6.63556 17.96875 6.53125 z "
     class="ColorScheme-Text"
     />
 <path 
     style="fill:currentColor;fill-opacity:1;stroke:none" 
     d="M 4.25 5.5 C 3.55748 5.5 3 6.05748 3 6.75 L 3 14.25 C 3 14.94252 3.55748 15.5 4.25 15.5 L 16.75 15.5 C 17.44252 15.5 18 14.94252 18 14.25 L 18 6.75 C 18 6.05748 17.44252 5.5 16.75 5.5 L 4.25 5.5 z M 14 7.5 L 15 7.5 L 15 11.5 L 14 11.5 L 9 11.5 L 9 13.5 L 6 11 L 9 8.5 L 9 10.5 L 12 10.5 L 13 10.5 L 14 10.5 L 14 7.5 z "
     class="ColorScheme-Text"
     />
</svg>
